public/icons/bag.svg

<svg width="88" height="88" viewBox="0 0 88 88" fill="none" xmlns="http://www.w3.org/2000/svg">
<g clip-path="url(#clip0_468_13326)">
<mask id="mask0_468_13326" style="mask-type:luminance" maskUnits="userSpaceOnUse" x="0" y="0" width="88" height="88">
<path d="M88 0H0V88H88V0Z" fill="white"/>
</mask>
<g mask="url(#mask0_468_13326)">
<path d="M29.1753 21.3148L22.227 44.8768C22.183 45.1591 22.1353 45.4047 22.1353 45.6871V86.0938H44.6523V21.3148H29.1753Z" fill="#A07025"/>
<path d="M36.2237 86.0488H85.489V45.9245C85.489 45.4515 85.4413 45.0225 85.2983 44.5422L78.4417 21.2698H29.1763L36.033 44.5422C36.1247 44.9675 36.2237 45.4405 36.2237 45.9245V86.0488Z" fill="#FAB621"/>
<path d="M67.3996 76.1904H69.7829C71.3559 76.1904 72.5916 74.9071 72.5916 73.3818V73.1911L71.3999 56.4821H65.7826L64.5909 73.1911C64.4992 74.7641 65.6359 76.0914 67.2089 76.1904H67.3996Z" fill="#E52B2C"/>
<path d="M51.9754 76.1904H54.2121C55.7851 76.1904 57.0244 74.9071 57.0244 73.3818V73.0994L55.9317 62.1031H50.3107L49.2181 73.0994C49.0751 74.6724 50.1751 75.9998 51.7407 76.1904H52.0194H51.9754Z" fill="#E52B2C"/>
<path d="M79.8681 12.8391C81.4411 12.8391 82.6768 14.7384 82.6768 17.0777C82.6768 19.4134 81.3971 21.3164 79.8681 21.3164H29.1764V12.8391H79.8681Z" fill="#F9B01E"/>
<path d="M20.6994 16.504C20.6994 19.9323 23.464 22.6896 26.885 22.6896H30.3574C30.3574 22.6896 30.5957 22.6896 30.6947 22.8326L39.4984 29.638C41.5884 31.255 44.5437 30.8736 46.2084 28.8276C47.7264 26.9246 47.5907 24.16 45.871 22.4513L37.2067 13.7833C37.2067 13.7833 36.9684 13.2113 37.2067 12.9766C37.2984 12.885 37.4414 12.83 37.632 12.83H63.0054L48.918 5.11895C48.0197 4.64595 46.9637 4.35262 45.9737 4.35262H10.0844C9.75071 4.35262 9.51237 4.59095 9.51237 4.92829V15.0666C9.51237 15.404 9.75071 15.6386 10.0844 15.6386H19.9367C20.4097 15.6386 20.791 16.0676 20.791 16.4966L20.6994 16.504Z" fill="#F6CEAD"/>
<path d="M15.0884 1.5617H3.80971V19.8877H15.0884V1.5617Z" fill="#E52B2C"/>
<path d="M36.2236 86.0488L29.1763 79.0015L22.129 86.0488H36.2236Z" fill="#A07025"/>
<path d="M55.922 62.1035V60.6772L58.7307 59.2472C58.7307 59.2472 57.6857 45.1598 50.257 45.1598V62.0595H55.878L55.922 62.1035Z" fill="#DADCDD"/>
<path d="M62.9706 50.8722L65.7793 56.4932H71.4003L74.2126 50.8722H62.934H62.9706Z" fill="#DADCDD"/>
<path d="M55.7469 60.2377C55.5562 60.366 55.4499 60.5384 55.4499 60.729V61.2754C55.4499 61.477 55.2849 61.6384 55.0869 61.6384H51.1855C50.9839 61.6384 50.8189 61.477 50.8189 61.2754V46.077C50.8189 45.9597 50.8812 45.846 50.9802 45.78C51.0389 45.736 51.1122 45.714 51.1855 45.714C51.2295 45.714 51.2735 45.7214 51.3175 45.7397L52.0619 46.0294C54.0455 46.7994 55.6479 48.9407 56.8285 52.391C57.4592 54.327 57.9065 56.34 58.1559 58.386L58.2035 58.7674C58.2219 58.9214 58.1412 59.0717 58.0019 59.1377L55.7469 60.2377ZM55.2299 62.632C55.4169 62.632 55.5745 62.7714 55.5929 62.9584L56.5939 73.181C56.5939 73.192 56.5939 73.203 56.5939 73.2177V73.39C56.5939 74.677 55.5452 75.7257 54.2582 75.7257H52.0215C51.4165 75.7257 50.8005 75.4544 50.3275 74.985L49.3999 74.0574C49.2935 73.951 49.2642 73.797 49.3192 73.6577C49.3779 73.522 49.5099 73.434 49.6565 73.434H49.7629C49.7665 73.3424 49.7739 73.247 49.7849 73.148L50.7859 62.9584C50.8042 62.7714 50.9619 62.632 51.1489 62.632H55.2299ZM54.6505 76.6094C56.4362 76.3784 57.7269 74.7724 57.5435 73.0014L56.4435 62.0674C56.4399 62.0564 56.4399 62.0417 56.4399 62.0307V61.1837C56.4399 61.0444 56.5205 60.9197 56.6452 60.8574L58.9552 59.7317C59.1312 59.6144 59.2375 59.409 59.2485 59.1744C59.1899 58.452 58.8379 54.9577 57.5875 51.5367C55.9229 46.9864 53.4735 44.6764 50.3092 44.6764C50.0305 44.6764 49.7922 44.9147 49.7922 45.197V62.049C49.7922 62.137 49.7629 62.2177 49.7079 62.28L48.6482 72.8987V73.28C48.6482 75.117 50.1405 76.6094 51.9739 76.6094H54.6139C54.6249 76.6094 54.6395 76.6094 54.6505 76.6094Z" fill="#1D1E1E"/>
<path d="M14.1606 2.07986C14.3623 2.07986 14.5236 2.2412 14.5236 2.44286V19.0052C14.5236 19.2069 14.3623 19.3682 14.1606 19.3682H4.59426C4.39259 19.3682 4.23125 19.2069 4.23125 19.0052V2.44286C4.23125 2.2412 4.39259 2.07986 4.59426 2.07986H14.1606ZM82.1076 16.2809C82.1663 16.3469 82.2066 16.4349 82.2066 16.5302V17.0765C82.2066 18.8732 81.2643 20.7945 79.8673 20.7945H44.9899C44.8946 20.7945 44.8029 20.7579 44.7333 20.6882L38.0233 13.9782C37.9169 13.8755 37.8876 13.7179 37.9426 13.5822C37.9976 13.4465 38.1333 13.3585 38.2799 13.3585H79.8233C81.0809 13.3585 81.9169 14.8252 82.1076 16.2809ZM35.8233 12.3795C35.6399 12.5922 35.6289 12.9332 35.8086 13.1092L45.4739 22.7672C47.0103 24.2522 47.1716 26.7529 45.8406 28.4505C45.0193 29.5102 43.7726 30.1189 42.4269 30.1189C41.4699 30.1189 40.5643 29.8072 39.8126 29.2242L31.0126 22.4225C30.7963 22.2649 30.5543 22.1769 30.3306 22.1769H26.8546C23.7013 22.1769 21.1346 19.6139 21.1346 16.4569C21.1346 15.7272 20.5406 15.1295 19.8073 15.1295H15.8803C15.6786 15.1295 15.5173 14.9682 15.5173 14.7665V5.15253C15.5173 4.95453 15.6786 4.78953 15.8803 4.78953H45.8369C46.7903 4.78953 47.7033 5.01686 48.5466 5.46786L57.8343 10.5169C57.9809 10.5975 58.0543 10.7662 58.0103 10.9275L57.7463 11.9542C57.7059 12.1155 57.5629 12.2292 57.3943 12.2292H36.1679C36.0359 12.2292 35.9333 12.2732 35.8233 12.3795ZM29.1316 47.4989C28.8493 47.4989 28.6109 47.7335 28.6109 48.0159V78.6545C28.6109 78.7499 28.5743 78.8452 28.5046 78.9112L23.1769 84.2425C23.1073 84.3122 23.0119 84.3489 22.9203 84.3489C22.8726 84.3489 22.8249 84.3379 22.7809 84.3195C22.6416 84.2645 22.5536 84.1325 22.5536 83.9859V46.0139C22.5536 45.5372 22.6599 45.0569 22.7736 44.6059C22.7846 44.5765 22.7956 44.5472 22.8103 44.5215L28.7796 24.2302C28.8273 24.0762 28.9703 23.9699 29.1279 23.9699H29.1316C29.2929 23.9699 29.4323 24.0762 29.4799 24.2302L35.5116 44.6132C35.7059 45.1009 35.7059 45.5519 35.7059 45.9149V83.9749C35.7059 84.1215 35.6179 84.2535 35.4823 84.3122C35.4346 84.3305 35.3869 84.3379 35.3429 84.3379C35.2476 84.3379 35.1523 84.3012 35.0826 84.2315L29.7549 78.9039C29.6853 78.8342 29.6486 78.7425 29.6486 78.6472V48.0159C29.6486 47.7042 29.4396 47.4989 29.1316 47.4989ZM84.8136 44.6242C85.0079 45.1082 85.0079 45.5592 85.0079 45.9259V85.2105C85.0079 85.4122 84.8429 85.5772 84.6413 85.5772H37.0076C36.8059 85.5772 36.6409 85.4122 36.6409 85.2105V45.9259C36.6409 45.3465 36.5896 44.8735 36.4796 44.4299L36.3073 43.7479C36.2963 43.7075 36.2926 43.6672 36.2963 43.6269L30.5286 24.1202C30.4809 23.9662 30.5396 23.8049 30.6716 23.7132C30.7339 23.6729 30.8036 23.6509 30.8769 23.6509C30.9539 23.6509 31.0346 23.6765 31.1006 23.7279L39.2039 30.0602C40.1206 30.7825 41.2316 31.1639 42.4086 31.1639C43.3619 31.1639 44.3006 30.9072 45.1256 30.4232C47.6446 28.9162 48.4843 25.6565 46.9956 23.1559L46.5043 22.3272C46.4383 22.2172 46.4383 22.0742 46.5043 21.9605C46.5666 21.8469 46.6876 21.7772 46.8196 21.7772H77.7956C77.9569 21.7772 78.0963 21.8835 78.1439 22.0375L84.8136 44.6242ZM29.1023 79.8902C29.1976 79.8902 29.2893 79.9269 29.3589 80.0002L34.3163 84.9539C34.4189 85.0602 34.4519 85.2142 34.3969 85.3499C34.3383 85.4855 34.2063 85.5772 34.0596 85.5772H24.1449C23.9983 85.5772 23.8663 85.4855 23.8113 85.3499C23.7526 85.2142 23.7856 85.0602 23.8883 84.9539L28.8456 80.0002C28.9153 79.9269 29.0106 79.8902 29.1023 79.8902ZM85.5799 86.7139C85.8586 86.7139 86.0969 86.4755 86.0969 86.1932V46.0139C86.0969 45.4419 86.0456 44.9652 85.9356 44.5252L85.9209 44.4702C85.9136 44.4409 85.9099 44.4152 85.9063 44.3859L79.3906 22.4005C79.3613 22.3015 79.3759 22.1915 79.4309 22.1035C79.4896 22.0155 79.5776 21.9532 79.6839 21.9385L80.2999 21.8359C82.0379 21.5645 83.2956 19.5809 83.2956 17.1205C83.2956 14.4805 81.8363 12.4125 79.9663 12.4125H63.2609C63.2023 12.4125 63.1399 12.3942 63.0886 12.3685L49.1626 4.7822C48.1469 4.22486 47.0616 3.94253 45.9359 3.94253H15.9793C15.7776 3.94253 15.6163 3.7812 15.6163 3.57953V1.60686C15.6163 1.32453 15.3779 1.08986 15.0956 1.08986H3.82059C3.78759 1.08986 3.75826 1.08253 3.72526 1.0752C3.52359 1.14853 3.38426 1.3392 3.38426 1.56286V19.8412C3.38426 20.1235 3.62259 20.3582 3.90125 20.3582H15.1799C15.4586 20.3582 15.6969 20.1235 15.6969 19.8412V16.4862C15.6969 16.2845 15.8619 16.1232 16.0599 16.1232H19.9723C20.1629 16.1232 20.3206 16.2699 20.3353 16.4605L20.3719 16.9702C20.6213 20.4462 23.5253 23.1705 26.9829 23.1705H27.7126C27.8263 23.1705 27.9326 23.2255 28.0023 23.3172C28.0719 23.4089 28.0939 23.5262 28.0609 23.6362L21.9486 44.2795C21.7836 44.8625 21.6993 45.4492 21.6993 46.0249V86.1932C21.6993 86.4755 21.9376 86.7139 22.2199 86.7139H85.5799Z" fill="#1D1E1E"/>
<path d="M72.856 51.3448C72.9843 51.3448 73.1016 51.4108 73.1676 51.5171C73.2336 51.6271 73.2373 51.7591 73.1786 51.8728L71.1986 55.7741C71.1363 55.8951 71.0116 55.9721 70.8723 55.9721H66.3C66.1606 55.9721 66.036 55.8951 65.9736 55.7741L63.9936 51.8728C63.935 51.7591 63.9386 51.6271 64.0046 51.5171C64.0706 51.4108 64.188 51.3448 64.3163 51.3448H72.856ZM67.4513 75.6731C67.3816 75.6804 67.3193 75.6804 67.2716 75.6804C66.6996 75.6804 66.179 75.4458 65.7133 74.9838L65.6766 74.9471C65.6656 74.9361 65.6546 74.9214 65.6436 74.9068L65.6106 74.8664C65.222 74.3164 65.046 73.7261 65.1083 73.1578L66.2376 57.2958C66.2486 57.1051 66.4063 56.9548 66.6006 56.9548H70.6083C70.799 56.9548 70.9603 57.1051 70.9713 57.2921L72.108 73.1908C72.1116 73.1981 72.1116 73.2091 72.1116 73.2164V73.3338C72.1116 74.6244 71.063 75.6731 69.7723 75.6731H67.4513ZM70.1646 76.6631C71.9833 76.5018 73.318 74.9398 73.2006 73.1028L72.0456 56.6358C72.042 56.5698 72.0566 56.5074 72.086 56.4488L74.7626 51.0404C74.7736 51.0038 74.7956 50.8901 74.8103 50.7618V45.1958C74.8103 44.8878 74.6013 44.6788 74.2933 44.6788C74.011 44.6788 73.7763 44.9171 73.7763 45.1958V49.9808C73.7763 50.1824 73.6113 50.3438 73.4096 50.3438H69.5083C69.3066 50.3438 69.1453 50.1824 69.1453 49.9808V45.1958C69.1453 44.8878 68.9363 44.6788 68.6283 44.6788C68.346 44.6788 68.1076 44.9171 68.1076 45.1958V49.9808C68.1076 50.1824 67.9463 50.3438 67.7446 50.3438H63.8433C63.6416 50.3438 63.4803 50.1824 63.4803 49.9808V45.1958C63.4803 44.8878 63.2713 44.6788 62.9596 44.6788C62.8203 44.6788 62.6846 44.7374 62.5893 44.8401V50.7911C62.5966 50.8424 62.6406 50.9891 62.6626 51.0808L62.6663 51.0881L65.3246 56.4598C65.354 56.5148 65.365 56.5808 65.3613 56.6468L64.2063 73.0844V73.3338C64.2063 75.1708 65.6986 76.6631 67.5356 76.6631H70.1646Z" fill="#1D1E1E"/>
</g>
</g>
<defs>
<clipPath id="clip0_468_13326">
<rect width="88" height="88" fill="white" transform="matrix(-1 0 0 1 88 0)"/>
</clipPath>
</defs>
</svg>

<svg xmlns="http://www.w3.org/2000/svg" width="88" height="88" fill="none" viewBox="0 0 88 88"><g clip-path="url(#a)"><mask id="b" width="88" height="88" x="0" y="0" maskUnits="userSpaceOnUse" style="mask-type:luminance"><path fill="#fff" d="M88 0H0v88h88z"/></mask><g mask="url(#b)"><path fill="#a07025" d="m29.175 21.315-6.948 23.562c-.044.282-.092.528-.092.81v40.407h22.517v-64.78z"/><path fill="#fab621" d="M36.224 86.049h49.265V45.924a4.6 4.6 0 0 0-.19-1.382L78.441 21.27H29.176l6.857 23.272c.092.425.19.898.19 1.383z"/><path fill="#e52b2c" d="M67.4 76.19h2.383a2.81 2.81 0 0 0 2.809-2.808v-.19L71.4 56.481h-5.617l-1.192 16.71c-.092 1.572 1.045 2.9 2.618 2.998zm-15.425 0h2.237a2.814 2.814 0 0 0 2.812-2.808v-.283l-1.092-10.996H50.31L49.218 73.1c-.143 1.573.957 2.9 2.523 3.091h.278z"/><path fill="#f9b01e" d="M79.868 12.84c1.573 0 2.809 1.898 2.809 4.238 0 2.335-1.28 4.238-2.809 4.238H29.176V12.84z"/><path fill="#f6cead" d="M20.7 16.504a6.175 6.175 0 0 0 6.185 6.186h3.472s.239 0 .338.143l8.803 6.805c2.09 1.617 5.046 1.236 6.71-.81 1.518-1.903 1.383-4.668-.337-6.377l-8.664-8.668s-.239-.572 0-.806c.091-.092.234-.147.425-.147h25.373L48.918 5.119c-.898-.473-1.954-.766-2.944-.766h-35.89a.55.55 0 0 0-.572.575v10.139a.55.55 0 0 0 .572.572h9.853c.473 0 .854.429.854.858z"/><path fill="#e52b2c" d="M15.088 1.562H3.81v18.326h11.278z"/><path fill="#a07025" d="M36.224 86.049 29.176 79l-7.046 7.05z"/><path fill="#dadcdd" d="M55.922 62.104v-1.427l2.809-1.43S57.686 45.16 50.257 45.16v16.9h5.621zm7.048-11.232 2.81 5.621h5.62l2.813-5.62H62.934z"/><path fill="#1d1e1e" d="M55.747 60.238c-.19.128-.297.3-.297.491v.546a.364.364 0 0 1-.363.363h-3.902a.365.365 0 0 1-.366-.363V46.077c0-.117.062-.231.161-.297a.34.34 0 0 1 .206-.066q.065-.001.132.026l.744.29c1.983.77 3.586 2.91 4.767 6.361a32 32 0 0 1 1.327 5.995l.047.381a.36.36 0 0 1-.201.37zm-.517 2.394c.187 0 .345.14.363.326l1 10.223v.209a2.34 2.34 0 0 1-2.335 2.336h-2.236c-.605 0-1.221-.272-1.694-.741l-.928-.928a.37.37 0 0 1-.08-.4.37.37 0 0 1 .337-.223h.106q.005-.138.022-.286l1-10.19a.363.363 0 0 1 .364-.326zm-.58 13.977c1.786-.23 3.077-1.837 2.894-3.608l-1.1-10.934c-.004-.01-.004-.025-.004-.036v-.847c0-.14.08-.264.205-.327l2.31-1.125a.7.7 0 0 0 .294-.558c-.06-.722-.411-4.216-1.662-7.637-1.664-4.55-4.114-6.86-7.278-6.86a.527.527 0 0 0-.517.52v16.852c0 .088-.03.169-.084.231l-1.06 10.619v.381a3.33 3.33 0 0 0 3.326 3.33h2.677"/><path fill="#1d1e1e" d="M14.16 2.08c.202 0 .364.161.364.363v16.562a.36.36 0 0 1-.363.363H4.594a.36.36 0 0 1-.363-.363V2.443c0-.202.162-.363.363-.363zm67.948 14.2a.38.38 0 0 1 .099.25v.546c0 1.797-.943 3.718-2.34 3.718H44.99a.36.36 0 0 1-.257-.106l-6.71-6.71a.361.361 0 0 1 .257-.62h41.543c1.258 0 2.094 1.467 2.285 2.923m-46.285-3.9c-.183.212-.194.553-.014.73l9.665 9.657c1.536 1.485 1.698 3.986.367 5.684a4.3 4.3 0 0 1-3.414 1.668 4.23 4.23 0 0 1-2.614-.895l-8.8-6.802a1.2 1.2 0 0 0-.682-.245h-3.476a5.725 5.725 0 0 1-5.72-5.72 1.33 1.33 0 0 0-1.328-1.328H15.88a.36.36 0 0 1-.363-.362V5.153c0-.198.162-.363.363-.363h29.957a5.7 5.7 0 0 1 2.71.678l9.287 5.049c.147.08.22.25.176.41l-.264 1.027a.36.36 0 0 1-.352.275H36.168a.46.46 0 0 0-.345.15m-6.691 35.119a.524.524 0 0 0-.521.517v30.639c0 .095-.037.19-.106.256l-5.328 5.332a.37.37 0 0 1-.257.106.4.4 0 0 1-.14-.03.36.36 0 0 1-.226-.333V46.014c0-.477.106-.957.22-1.408a1 1 0 0 1 .036-.084l5.97-20.292a.37.37 0 0 1 .348-.26h.004c.16 0 .3.106.348.26l6.032 20.383c.194.488.194.939.194 1.302v38.06a.37.37 0 0 1-.224.337.4.4 0 0 1-.14.026.37.37 0 0 1-.26-.106l-5.327-5.328a.36.36 0 0 1-.106-.257V48.016c0-.312-.21-.517-.517-.517m55.682-2.875c.194.484.194.935.194 1.302V85.21a.37.37 0 0 1-.367.367H37.008a.37.37 0 0 1-.367-.367V45.927a6 6 0 0 0-.161-1.496l-.173-.682q-.016-.06-.01-.121L30.528 24.12a.362.362 0 0 1 .348-.47c.077 0 .158.027.224.078l8.103 6.332a5.13 5.13 0 0 0 3.205 1.104c.953 0 1.892-.257 2.717-.74 2.519-1.508 3.358-4.767 1.87-7.268l-.492-.829a.36.36 0 0 1 0-.367.36.36 0 0 1 .316-.183h30.976c.16 0 .3.107.348.26zM29.102 79.89a.35.35 0 0 1 .257.11l4.957 4.954a.37.37 0 0 1 .08.396.37.37 0 0 1-.336.227h-9.915a.36.36 0 0 1-.334-.227.36.36 0 0 1 .077-.396L28.846 80a.36.36 0 0 1 .256-.11m56.478 6.824a.527.527 0 0 0 .517-.52v-40.18a6 6 0 0 0-.161-1.489l-.015-.055-.015-.084L79.391 22.4a.37.37 0 0 1 .04-.297.36.36 0 0 1 .253-.165l.616-.103c1.738-.271 2.996-2.255 2.996-4.715 0-2.64-1.46-4.708-3.33-4.708H63.261a.4.4 0 0 1-.172-.045L49.163 4.782a6.64 6.64 0 0 0-3.227-.84H15.979a.36.36 0 0 1-.363-.362V1.607a.524.524 0 0 0-.52-.517H3.82q-.048-.001-.096-.015a.52.52 0 0 0-.34.488V19.84c0 .282.238.517.516.517h11.28a.524.524 0 0 0 .517-.517v-3.355c0-.201.165-.363.363-.363h3.912c.19 0 .349.147.363.337l.037.51c.25 3.476 3.153 6.2 6.61 6.2h.73a.365.365 0 0 1 .349.466L21.949 44.28a6.4 6.4 0 0 0-.25 1.745v40.168c0 .282.239.52.52.52z"/><path fill="#1d1e1e" d="M72.856 51.345a.36.36 0 0 1 .322.528l-1.98 3.901a.37.37 0 0 1-.326.198H66.3a.37.37 0 0 1-.326-.198l-1.98-3.901a.36.36 0 0 1 .01-.356.37.37 0 0 1 .312-.172zm-5.405 24.328q-.106.009-.18.007-.858-.002-1.558-.696l-.036-.037q-.016-.017-.033-.04l-.033-.04c-.389-.55-.565-1.14-.503-1.71l1.13-15.861a.36.36 0 0 1 .363-.341h4.007c.191 0 .352.15.363.337l1.137 15.899.004.025v.118c0 1.29-1.049 2.34-2.34 2.34zm2.714.99a3.33 3.33 0 0 0 3.036-3.56l-1.155-16.467a.4.4 0 0 1 .04-.187l2.677-5.409c.01-.036.033-.15.047-.278v-5.566a.49.49 0 0 0-.517-.517.524.524 0 0 0-.517.517v4.785a.365.365 0 0 1-.366.363h-3.902a.36.36 0 0 1-.363-.363v-4.785a.49.49 0 0 0-.517-.517.527.527 0 0 0-.52.517v4.785a.36.36 0 0 1-.363.363h-3.902a.36.36 0 0 1-.363-.363v-4.785c0-.308-.209-.517-.52-.517a.5.5 0 0 0-.37.161v5.951c.007.051.05.198.073.29l.003.007 2.659 5.372q.043.084.036.187l-1.155 16.437v.25a3.33 3.33 0 0 0 3.33 3.33z"/></g></g><defs><clipPath id="a"><path fill="#fff" d="M88 0H0v88h88z"/></clipPath></defs></svg>
